!!!OTL: Boston Burglar
!!!ONM: 96.
**kern
*clefG2
*k[b-e-a-]
*E-:
*M6/8
*MM84
{4a-
8g
4a-
8b-
=2
4.a-
4f
8e-
=3
8e-
8e-
8f
4g
8e-
=4
4.B-
4r}
{8B-
=5
4B-
8B-
4c
8G
=6
4B-
8B-
4r
8g
=7
4g
8f
4f
8c
=8
4.f
4r}
{8g
=9
4g
8g
8a-
4b-
=10
8g
4f
4r
8f
=11
4e-
8f
4g
8e-
=12
4.B-
4r}
{8B-
=13
4B-
8B-
4c
8B-
=14
4G
8B-
4c
16g
16g
=15
4g
8f
4d
8B-
=16
4.e-
4r
8r}
==
*-
!!!CNT: Folksongs of Maritime Canada
!!!MRD: 1928///-1932///
!!!OCL: Helen Creighton
!!!YOR: Songs and Ballads from Nova Scotia
!!!PPR: J.M. Dent & Sons, Limited
!!!PPP: Toronto, Canada
!!!PDT: 1932///
!!!reprint: Dover Publications, 1992: ISBN 0-486-21703-5
!!!ENC1: Craig Stuart Sapp (music and bibliographic data)                       
!!!ENC2: Marcus Pearce (phrase markings and key designations)                   
!!!ENC3: Darrell Conklin (phrase markings and key designations)   
!!!END: 2002/04/10/
!!!EEV: 2004/06/05
!!!MPN: Mr. Tom Henneberry and Mr. Edward Hartley
!!!PPG: 206
!!!EFL: 97/152
!!!ARE: Canada; Nova Scotia
!!!verses: 6
!!!VTS: 1412217748
